src/images/community/meeting.svg

<svg fill="none" height="30" viewBox="0 0 31 30" width="31" xmlns="http://www.w3.org/2000/svg"><path d="m15.875 15.275c.667-.5773 1.2019-1.2914 1.5686-2.0937.3666-.8023.5564-1.6742.5564-2.5563 0-1.6576-.6585-3.24731-1.8306-4.41942-1.1721-1.1721-2.7618-1.83058-4.4194-1.83058s-3.24731.65848-4.41942 1.83058c-1.1721 1.17211-1.83058 2.76182-1.83058 4.41942-.00001.8821.18975 1.754.55641 2.5563.36665.8023.90162 1.5164 1.56859 2.0937-1.74983.7924-3.23442 2.0719-4.27627 3.6857-1.04186 1.6137-1.59689 3.4934-1.59873 5.4143 0 .3315.1317.6495.36612.8839s.55236.3661.88388.3661.64946-.1317.88388-.3661.36612-.5524.36612-.8839c0-1.9891.79018-3.8968 2.1967-5.3033s3.31418-2.1967 5.3033-2.1967c1.9891 0 3.8968.7902 5.3033 2.1967s2.1967 3.3142 2.1967 5.3033c0 .3315.1317.6495.3661.8839s.5524.3661.8839.3661.6495-.1317.8839-.3661.3661-.5524.3661-.8839c-.0018-1.9209-.5569-3.8006-1.5987-5.4143-1.0419-1.6138-2.5265-2.8933-4.2763-3.6857zm-4.125-.9c-.7417 0-1.4667-.2199-2.08339-.632-.61668-.412-1.09733-.9977-1.38116-1.6829-.28383-.6853-.35809-1.4393-.21339-2.16669.14469-.72743.50184-1.39561 1.02629-1.92006s1.19265-.8816 1.92005-1.02629c.7274-.1447 1.4814-.07044 2.1667.21339.6852.28383 1.2709.76448 1.6829 1.38116.4121.61669.632 1.34171.632 2.08339 0 .9946-.3951 1.9484-1.0983 2.6517-.7033.7032-1.6571 1.0983-2.6517 1.0983zm12.175.4c.8-.9008 1.3225-2.0137 1.5048-3.2046.1822-1.1909.0164-2.40906-.4776-3.5079-.4939-1.09884-1.295-2.03151-2.3066-2.68572-1.0117-.65422-2.1908-1.0021-3.3956-1.00178-.3315 0-.6495.1317-.8839.36612s-.3661.55236-.3661.88388.1317.64946.3661.88388.5524.36612.8839.36612c.9946 0 1.9484.39509 2.6517 1.09835.7032.70326 1.0983 1.65709 1.0983 2.65165-.0018.6565-.1759 1.3011-.5049 1.8693-.3291.5681-.8015 1.0399-1.3701 1.3682-.1853.1069-.3401.2596-.4495.4434-.1095.1839-.1699.3927-.1755.6066-.0052.2122.0437.4222.1421.6103s.2431.348.4204.4647l.4875.325.1625.0875c1.5067.7146 2.7779 1.845 3.6637 3.2579.8859 1.4129 1.3495 3.0495 1.3363 4.7171 0 .3315.1317.6495.3661.8839s.5524.3661.8839.3661.6495-.1317.8839-.3661.3661-.5524.3661-.8839c.0102-1.9182-.4702-3.8072-1.3957-5.4874-.9254-1.6803-2.2651-3.096-3.8918-4.1126z" fill="#000"/></svg>

<svg width="31" height="30" viewBox="0 0 31 30" fill="none" xmlns="http://www.w3.org/2000/svg">
<path d="M15.875 15.275C16.542 14.6977 17.0769 13.9836 17.4436 13.1813C17.8102 12.379 18 11.5071 18 10.625C18 8.9674 17.3415 7.37769 16.1694 6.20558C14.9973 5.03348 13.4076 4.375 11.75 4.375C10.0924 4.375 8.50269 5.03348 7.33058 6.20558C6.15848 7.37769 5.5 8.9674 5.5 10.625C5.49999 11.5071 5.68975 12.379 6.05641 13.1813C6.42306 13.9836 6.95803 14.6977 7.625 15.275C5.87517 16.0674 4.39058 17.3469 3.34873 18.9607C2.30687 20.5744 1.75184 22.4541 1.75 24.375C1.75 24.7065 1.8817 25.0245 2.11612 25.2589C2.35054 25.4933 2.66848 25.625 3 25.625C3.33152 25.625 3.64946 25.4933 3.88388 25.2589C4.1183 25.0245 4.25 24.7065 4.25 24.375C4.25 22.3859 5.04018 20.4782 6.4467 19.0717C7.85322 17.6652 9.76088 16.875 11.75 16.875C13.7391 16.875 15.6468 17.6652 17.0533 19.0717C18.4598 20.4782 19.25 22.3859 19.25 24.375C19.25 24.7065 19.3817 25.0245 19.6161 25.2589C19.8505 25.4933 20.1685 25.625 20.5 25.625C20.8315 25.625 21.1495 25.4933 21.3839 25.2589C21.6183 25.0245 21.75 24.7065 21.75 24.375C21.7482 22.4541 21.1931 20.5744 20.1513 18.9607C19.1094 17.3469 17.6248 16.0674 15.875 15.275V15.275ZM11.75 14.375C11.0083 14.375 10.2833 14.1551 9.66661 13.743C9.04993 13.331 8.56928 12.7453 8.28545 12.0601C8.00162 11.3748 7.92736 10.6208 8.07206 9.89341C8.21675 9.16598 8.5739 8.4978 9.09835 7.97335C9.6228 7.4489 10.291 7.09175 11.0184 6.94706C11.7458 6.80236 12.4998 6.87662 13.1851 7.16045C13.8703 7.44428 14.456 7.92493 14.868 8.54161C15.2801 9.1583 15.5 9.88332 15.5 10.625C15.5 11.6196 15.1049 12.5734 14.4017 13.2767C13.6984 13.9799 12.7446 14.375 11.75 14.375ZM23.925 14.775C24.725 13.8742 25.2475 12.7613 25.4298 11.5704C25.612 10.3795 25.4462 9.16134 24.9522 8.0625C24.4583 6.96366 23.6572 6.03099 22.6456 5.37678C21.6339 4.72256 20.4548 4.37468 19.25 4.375C18.9185 4.375 18.6005 4.5067 18.3661 4.74112C18.1317 4.97554 18 5.29348 18 5.625C18 5.95652 18.1317 6.27446 18.3661 6.50888C18.6005 6.7433 18.9185 6.875 19.25 6.875C20.2446 6.875 21.1984 7.27009 21.9017 7.97335C22.6049 8.67661 23 9.63044 23 10.625C22.9982 11.2815 22.8241 11.9261 22.4951 12.4943C22.166 13.0624 21.6936 13.5342 21.125 13.8625C20.9397 13.9694 20.7849 14.1221 20.6755 14.3059C20.566 14.4898 20.5056 14.6986 20.5 14.9125C20.4948 15.1247 20.5437 15.3347 20.6421 15.5228C20.7405 15.7109 20.8852 15.8708 21.0625 15.9875L21.55 16.3125L21.7125 16.4C23.2192 17.1146 24.4904 18.245 25.3762 19.6579C26.2621 21.0708 26.7257 22.7074 26.7125 24.375C26.7125 24.7065 26.8442 25.0245 27.0786 25.2589C27.313 25.4933 27.631 25.625 27.9625 25.625C28.294 25.625 28.612 25.4933 28.8464 25.2589C29.0808 25.0245 29.2125 24.7065 29.2125 24.375C29.2227 22.4568 28.7423 20.5678 27.8168 18.8876C26.8914 17.2073 25.5517 15.7916 23.925 14.775V14.775Z" fill="black"/>
</svg>
